!!!COM: Ockeghem, Johannes
!!!CDT: ~1425-1497/02/06
!!!OTL: Ma bouche rit
!!!AGN: Song; Chanson
!!!SCT: Ock3011
!!!SCA: Ock3011
!!!voices: 3
**kern	**text	**text	**kern	**text	**text	**kern	**text	**text
*staff3	*staff3	*staff3	*staff2	*staff2	*staff2	*staff1	*staff1	*staff1
*Ivox	*	*	*Ivox	*	*	*Ivox	*	*
*I"Contra	*	*	*I"Tenor	*	*	*I"Discantus	*	*
*I'C	*	*	*I'T	*	*	*I'D	*	*
*>[A,B]	*>[A,B]	*>[A,B]	*>[A,B]	*>[A,B]	*>[A,B]	*>[A,B]	*>[A,B]	*>[A,B]
*>A	*>A	*>A	*>A	*>A	*>A	*>A	*>A	*>A
*clefGv2	*	*	*clefGv2	*	*	*clefG2	*	*
*k[]	*	*	*k[]	*	*	*k[]	*	*
*M2/1	*	*	*M2/1	*	*	*M2/1	*	*
*met(C)	*	*	*met(C)	*	*	*met(C)	*	*
=1-	=1-	=1-	=1-	=1-	=1-	=1-	=1-	=1-
!!LO:TX:Z=12:t=Form&colon; virelai
1A	Ma	Vos-	0r	.	.	0a	Ma	Vos-
1A	bou-	-tre	.	.	.	.	.	.
=2	=2	=2	=2	=2	=2	=2	=2	=2
1A	-che	pi-	0r	.	.	1e	bou-	-tre
[1c	rit	-ti&eacute;	.	.	.	1e	-che	pi-
=3	=3	=3	=3	=3	=3	=3	=3	=3
2c]	.	.	0A	Ma	Vos-	1a	rit	-ti&eacute;
2A	et	veult	.	.	.	.	.	.
2.c	ma	don-	.	.	.	1a	et	veult
4d	.	.	.	.	.	.	.	.
=4	=4	=4	=4	=4	=4	=4	=4	=4
0e	.	-cques	1E	bou-	-tre	1g	ma	don-
.	.	.	1E	-che	pi-	1g	pen-	-cques
=5	=5	=5	=5	=5	=5	=5	=5	=5
1.e	pen-	que	1A	rit	-ti&eacute;	1cc	-s&eacute;-	que
.	.	.	1A	et	veult	1cc	-e	je
2c	.	.	.	.	.	.	.	.
=6	=6	=6	=6	=6	=6	=6	=6	=6
1d	-s&eacute;e	je	2.G	ma	don-	1b	pleu-	meu-
.	.	.	4F	.	.	.	.	.
1r	.	.	2E	.	.	2cc	.	.
.	.	.	2D	pen-	-cques	[2dd	.	.
=7	=7	=7	=7	=7	=7	=7	=7	=7
1r	.	.	2G	-s&eacute;-	que	2dd]	.	.
.	.	.	2A	-e	je	2cc	.	.
[1e	pleu-	meu-	2.c	pleu-	meu-	1a	.	.
.	.	.	4B	.	.	.	.	.
=8	=8	=8	=8	=8	=8	=8	=8	=8
2e]	.	.	1G	-re,	-re,	1b	-re,	-re,
4d	.	.	.	.	.	.	.	.
4c	.	.	.	.	.	.	.	.
[1c	-re,	-re,	1r	.	.	1e	.	.
=9	=9	=9	=9	=9	=9	=9	=9	=9
0c]	.	.	0e	Mon	Mais	1r	.	.
.	.	.	.	.	.	1g	Mon	Mais
=10	=10	=10	=10	=10	=10	=10	=10	=10
1r	.	.	1.d	oeil	Ri-	1a	oeil	Ri-
1G	Mon	Mais	.	.	.	1b	s'es-	-gueur
.	.	.	2c	.	.	.	.	.
=11	=11	=11	=11	=11	=11	=11	=11	=11
1A	oeil	Ri-	1A	.	.	1.cc	-joy-	veult
1F	.	-gueur	1A	s'es-	-gueur	.	.	.
.	.	.	.	.	.	4b	.	.
.	.	.	.	.	.	4a	.	.
=12	=12	=12	=12	=12	=12	=12	=12	=12
2r	.	.	1G	-joye	veult	1b	.	.
1G	s'es-	veult	.	.	.	.	.	.
.	.	.	2r	.	.	1e	-e et	que
[2C	-joye et	que	[2G	et	que	.	.	.
=13	=13	=13	=13	=13	=13	=13	=13	=13
2C]	.	.	2G]	.	.	1e	mon	vi-
2C	mon	vi-	2A	mon	vi-	.	.	.
1G	cueur	-vant	1B	cueur	-vant	1d	cueur	-vant
=14	=14	=14	=14	=14	=14	=14	=14	=14
2r	.	.	1c	maul-	je	1e	maul-	je
2C	maul-	je	.	.	.	.	.	.
1D	-dit	de-	1A	-dit	de-	1f	-dit	de-
=15	=15	=15	=15	=15	=15	=15	=15	=15
2E	l'eu-	-meu-	2G	l'eu-	-meu-	1.g	l'eu-	-meu-
1C	.	.	1E	.	.	.	.	.
[2c	.	.	2C	.	.	2e	.	.
=16	=16	=16	=16	=16	=16	=16	=16	=16
2c]	.	.	1D	.	.	1f	.	.
2B	.	.	.	.	.	.	.	.
1c	-re,	-re,	1C	-re	-re;	1e	-re,	-re,
=17	=17	=17	=17	=17	=17	=17	=17	=17
1f	l'eu-	de-	0r	.	.	1a	l'eu-	de-
2d	.	.	.	.	.	2f	.	.
[2e	.	-meu-	.	.	.	[2g	.	-meu-
=18	=18	=18	=18	=18	=18	=18	=18	=18
4e]	.	.	0r	.	.	2g]	.	.
4c	.	.	.	.	.	.	.	.
1c	.	.	.	.	.	2e	.	.
.	.	.	.	.	.	1d	.	.
2B	.	.	.	.	.	.	.	.
=19	=19	=19	=19	=19	=19	=19	=19	=19
2c	-re	-re;	1e	Qu'il	Ain-	1c	-re	-re;
1A	Qu'il	Ain-	.	.	.	.	.	.
.	.	.	2c	.	.	1r	.	.
[2G	.	.	[2d	.	.	.	.	.
=20	=20	=20	=20	=20	=20	=20	=20	=20
2G]	.	.	2d]	.	.	1r	.	.
2d	.	.	2B	.	.	.	.	.
2c	.	.	1A	.	.	1cc	Qu'il	Ain-
[2e	eut	-si	.	.	.	.	.	.
=21	=21	=21	=21	=21	=21	=21	=21	=21
2e]	.	.	1G	eut	-si	1.b	eut	-si
2d	.	.	.	.	.	.	.	.
1B	le	.	2r	.	.	.	.	.
.	.	.	2G	le	meurs	2g	le	meurs
=22	=22	=22	=22	=22	=22	=22	=22	=22
2.A	bien	meurs	2.c	bien	vif	1a	bien	vif
4B	.	.	4d	.	.	.	.	.
1c	.	.	1e	qui	et	2.g	qui	et
.	.	.	.	.	.	4a	.	.
=23	=23	=23	=23	=23	=23	=23	=23	=23
1G	qui	vif	2.d	sa	en	2b	.	.
.	.	.	.	.	.	4a	sa	en
.	.	.	4c	.	.	4b	.	.
1F	.	.	1A	san-	vi-	1cc	san-	vi-
=24	=24	=24	=24	=24	=24	=24	=24	=24
2r	.	.	1G	-t&eacute;	-vant	2b	-t&eacute;	-vant
2.E	sa	et	.	.	.	1g	.	.
.	.	.	[1c	des-	tres-	.	.	.
4C	.	.	.	.	.	.	.	.
[2F	san-	en	.	.	.	[2a	des-	tres-
=25	=25	=25	=25	=25	=25	=25	=25	=25
2F]	.	.	2c]	.	.	2a]	.	.
2G	.	vi-	2B	.	.	1g	-chas-	-pas-
1D	-t&eacute;	-vant	1A	-chas-	-pas-	.	.	.
.	.	.	.	.	.	2f#i	.	.
=26	=26	=26	=26	=26	=26	=26	=26	=26
2r	.	.	1G	-se	-se,	0g	-se	-se,
1E	des-	tres-	.	.	.	.	.	.
.	.	.	2r	.	.	.	.	.
2C	.	.	[2c	Et	Mais	.	.	.
=27	=27	=27	=27	=27	=27	=27	=27	=27
2.F	-chas-	-pas-	2c]	.	.	1r	.	.
.	.	.	2d	.	.	.	.	.
4E	.	.	.	.	.	.	.	.
1C	-se	-se,	1e	.	.	[1g	Et	Mais
=28	=28	=28	=28	=28	=28	=28	=28	=28
0r	.	.	1c	le	pour	1g]	.	.
.	.	.	1f	plai-	ce-	1a	le	pour
=29	=29	=29	=29	=29	=29	=29	=29	=29
1C	Et	Mais	2e	-sir	-ler	2g	plai-	ce-
.	.	.	2c	.	.	1cc	.	.
1G	le	pour	1d	.	.	.	.	.
.	.	.	.	.	.	2b	.	.
=30	=30	=30	=30	=30	=30	=30	=30	=30
1A	plai-	ce-	1c	.	.	1cc	-sir	-ler
[1G	-sir	-ler	1r	.	.	2b	que	le
.	.	.	.	.	.	2cc	la	.
=31	=31	=31	=31	=31	=31	=31	=31	=31
1G]	.	.	1B	que	le	1dd	mort	mal
2r	.	.	1c	.	.	2cc	.	.
2A	que	le	.	.	.	[2a	.	.
=32	=32	=32	=32	=32	=32	=32	=32	=32
2F	la	mal	2d	.	.	2a]	.	.
2G	.	.	1d	la	.	4g	.	.
.	.	.	.	.	.	4f	.	.
1A	.	.	.	.	.	1e	.	.
.	.	.	2c#i	.	.	.	.	.
=33	=33	=33	=33	=33	=33	=33	=33	=33
2B	mort	qui	1d	mort	mal	2d	.	.
2d	.	.	.	.	.	2f	.	.
2c	.	.	2r	.	.	1e	.	.
2A	.	.	2c	luy	qui	.	.	.
=34	=34	=34	=34	=34	=34	=34	=34	=34
2B	.	.	2d	pour-	ne	2r	.	.
1d	luy	ne	2f	.	.	2a	luy	qui
.	.	.	1e	.	se	2b	pour-	ne
2c	pour-	se	.	.	.	2cc	.	se
=35	=35	=35	=35	=35	=35	=35	=35	=35
2B	-chas-	pas-	1.d	-chas-	pas-	2.dd	-chas-	pas-
1G	.	.	.	.	.	.	.	.
.	.	.	.	.	.	4cc	.	.
.	.	.	.	.	.	4b	.	.
.	.	.	.	.	.	4a	.	.
2A	.	.	2c	.	.	[2a	.	.
=36	=36	=36	=36	=36	=36	=36	=36	=36
1E	.	.	1B	.	.	2a]	.	.
.	.	.	.	.	.	2g#i	.	.
2F	.	.	2.A	.	.	1a	-se	-se
2D	.	.	.	.	.	.	.	.
.	.	.	8G	.	.	.	.	.
.	.	.	8F	.	.	.	.	.
=37	=37	=37	=37	=37	=37	=37	=37	=37
2C	.	.	1E	.	.	0r	.	.
2.G	.	.	.	.	.	.	.	.
.	.	.	2G	.	.	.	.	.
4E	.	.	.	.	.	.	.	.
2F	.	.	2A	.	.	.	.	.
=38	=38	=38	=38	=38	=38	=38	=38	=38
1D	.	.	1B	-se	-se	1r	.	.
1C	-se	-se	1c	Sans	Et	1e	Sans	Et
=39	=39	=39	=39	=39	=39	=39	=39	=39
0r	.	.	2B	re-	pour	2g	re-	pour
.	.	.	2c	-con-	couv-	2a	.	.
.	.	.	2.d	-fort	-rir	1b	-con-	couv-
.	.	.	4c	.	.	.	.	.
=40	=40	=40	=40	=40	=40	=40	=40	=40
0e	qui	dueil	1A	.	.	1cc	-fort	-rir
.	.	.	2G	qui	le	2b	qui	le
.	.	.	2A	.	.	2cc	.	.
=41	=41	=41	=41	=41	=41	=41	=41	=41
1d	.	.	2B	m'ai-	dueil	2.dd	m'ai-	dueil
.	.	.	2G	.	.	.	.	.
.	.	.	.	.	.	4cc	.	.
2r	.	.	2A	.	.	1a	.	.
2d	m'ai-	o&ugrave;	2F	.	.	.	.	.
=42	=42	=42	=42	=42	=42	=42	=42	=42
2e	.	.	1E	.	.	1g	-de	o&ugrave;
2c	.	.	.	.	.	.	.	.
1d	-de	je	1D	-de	o&ugrave;	2r	.	.
.	.	.	.	.	.	[2a	ne	je
=43	=43	=43	=43	=43	=43	=43	=43	=43
2.c	ne	la-	1F	ne	je	2a]	.	.
.	.	.	.	.	.	4g	.	.
4A	.	.	.	.	.	4f	.	.
2B	.	.	2G	se-	la-	1e	se-	la-
2c	.	.	2A	.	.	.	.	.
=44	=44	=44	=44	=44	=44	=44	=44	=44
2G	.	.	2B	-queu-	-beu-	2d	-queu-	-beu-
2r	.	.	2c	.	.	2e	.	.
2.c	se-	-beu-	1A	.	.	4f	.	.
.	.	.	.	.	.	4e	.	.
.	.	.	.	.	.	4d	.	.
8B/L	.	.	.	.	.	4c	.	.
8A/J	.	.	.	.	.	.	.	.
=45	=45	=45	=45	=45	=45	=45	=45	=45
2G	.	.	2E	.	.	2B	.	.
1B	-queu-	.	2G	.	.	1e	.	.
.	.	.	1F	.	.	.	.	.
2A	.	.	.	.	.	2d	.	.
=46	=46	=46	=46	=46	=46	=46	=46	=46
0Bl	-re.	-re,	0El	-re.	-re,	0el	-re.	-re,
!!LO:TX:rj:i:Y=150:t=Fine
!!LO:LB:i:g=z
=47||	=47||	=47||	=47||	=47||	=47||	=47||	=47||	=47||
*>B	*>B	*>B	*>B	*>B	*>B	*>B	*>B	*>B
*clefGv2	*	*	*clefGv2	*	*	*clefG2	*	*
*k[]	*	*	*k[]	*	*	*k[]	*	*
*M2/1	*	*	*M2/1	*	*	*M2/1	*	*
*met(C|)	*	*	*met(C|)	*	*	*met(C|)	*	*
1.d	Ha,	Puis	0B	Ha,	Puis	0r	.	.
2c	.	.	.	.	.	.	.	.
=48	=48	=48	=48	=48	=48	=48	=48	=48
1A	cuer	qu'en	1c	cuer	qu'en	0r	.	.
1A	per-	ce	1c	per-	ce	.	.	.
=49	=49	=49	=49	=49	=49	=49	=49	=49
0G	-vers,	point	1.d	-vers,	point	0b	Ha,	Puis
.	.	.	2c	.	.	.	.	.
=50	=50	=50	=50	=50	=50	=50	=50	=50
2.c	faul-	vous	1A	.	.	1cc	cuer	qu'en
4d	.	.	.	.	.	.	.	.
1e	.	.	1A	faul-	vous	1cc	per-	ce
=51	=51	=51	=51	=51	=51	=51	=51	=51
1d	-sai-	vous	2D	-sai-	vous	1dd	-vers,	point
.	.	.	1G	.	.	.	.	.
2B	-re et	vou-	.	.	.	1dd	faul-	vous
2c	.	.	2A	-re et	vou-	.	.	.
=52	=52	=52	=52	=52	=52	=52	=52	=52
1d	men-	-lez	1B	men-	-lez	1g	-sai-	vous
1e	.	.	2.c	-son-	ven-	1a	-re et	vou-
.	.	.	4B	.	.	.	.	.
=53	=53	=53	=53	=53	=53	=53	=53	=53
2r	.	.	1G	-ger,	-ger,	1b	men-	-lez
1E	-son-	ven-	.	.	.	.	.	.
.	.	.	1r	.	.	2.cc	-son-	ven-
2F	.	.	.	.	.	.	.	.
.	.	.	.	.	.	4b	.	.
=54	=54	=54	=54	=54	=54	=54	=54	=54
1G	-ger,	-ger,	1r	.	.	1g	-ger,	-ger,
1C	.	.	[1c	Dic-	Pen-	1r	.	.
=55	=55	=55	=55	=55	=55	=55	=55	=55
0F	Dic-	Pen-	2c]	.	.	0a	Dic-	Pen-
.	.	.	2F	.	.	.	.	.
.	.	.	[1F	-tes	-sez	.	.	.
=56	=56	=56	=56	=56	=56	=56	=56	=56
1.c	-tes	-sez	1F]	.	.	1a	-tes	-sez
.	.	.	1F	com-	bien	1a	com-	bien
[2A	com-	bien	.	.	.	.	.	.
=57	=57	=57	=57	=57	=57	=57	=57	=57
2A]	.	.	1F	-ment	tost	1.a	-ment	tost
2B	.	.	.	.	.	.	.	.
[1c	-ment	tost	[1C	.	.	.	.	.
.	.	.	.	.	.	2g	.	.
=58	=58	=58	=58	=58	=58	=58	=58	=58
1c]	.	.	1C]	.	.	1e	.	.
1C	a-	de	1c	a-	de	1e	a-	de
=59	=59	=59	=59	=59	=59	=59	=59	=59
2.G	-vez	ma	1B	-vez	ma	1d	-vez	ma
4F	.	.	.	.	.	.	.	.
1E	o-	vie	1c	o-	vie	1e	o-	vie
=60	=60	=60	=60	=60	=60	=60	=60	=60
1D	-s&eacute;	ab-	1d	-s&eacute;	ab-	1f	-s&eacute;	ab-
1E	son-	-re-	1B	son-	-re-	1g	son-	-re-
=61	=61	=61	=61	=61	=61	=61	=61	=61
1C	-ger	-ger;	1c	-ger	-ger;	1e	-ger	-ger;
1F	.	.	1A	.	.	1c	.	.
=62	=62	=62	=62	=62	=62	=62	=62	=62
0r	.	.	2r	.	.	2e	Que	Viv-
.	.	.	2A	Que	Viv-	2f	de	-re
.	.	.	2G	de	-re	1g	faul-	ne
.	.	.	[2c	faul-	ne	.	.	.
=63	=63	=63	=63	=63	=63	=63	=63	=63
0r	.	.	4c]	.	.	2e	.	.
.	.	.	4B	.	.	.	.	.
.	.	.	2c	.	.	1f	.	.
.	.	.	2d	.	.	.	.	.
.	.	.	2B	.	.	2d	.	.
=64	=64	=64	=64	=64	=64	=64	=64	=64
1C	Que	Viv-	2.c	-ser	puis	1e	-ser	puis
.	.	.	4d	.	.	.	.	.
2.c	de	-re	1e	.	.	1A	.	.
4d	.	.	.	.	.	.	.	.
=65	=65	=65	=65	=65	=65	=65	=65	=65
1e	faul-	ne	1A	.	.	1r	.	.
1A	-ser	puis	1r	.	.	[1cc	ce	au
=66	=66	=66	=66	=66	=66	=66	=66	=66
1r	.	.	0A	ce	au	1cc]	.	.
1e	ce	au	.	.	.	1cc	que	point
=67	=67	=67	=67	=67	=67	=67	=67	=67
1c	que	point	1A	que	point	1cc	m'a-	o&ugrave;
1d	m'a-	o&ugrave;	1G	m'a-	o&ugrave;	1b	-vez	m'a-
=68	=68	=68	=68	=68	=68	=68	=68	=68
2r	.	.	2A	-vez	m'a-	2cc	pro-	-vez
2d	-vez	m'a-	2G	pro-	.	2.dd	-mis.&	mis,
1e	pro-	-vez	2c	.	.	.	.	.
.	.	.	.	.	.	4cc	.	.
.	.	.	2d	.	.	4b	.	.
.	.	.	.	.	.	4a	.	.
=69	=69	=69	=69	=69	=69	=69	=69	=69
2.EN	-mis.&	mis,	1eN	-mis.&	.	2.gN	.	.
4F	.	.	.	.	.	4a	.	.
2G	.	.	1e	.	-vez	2b	.	.
[2A	.	m'a-	.	.	.	[2cc	.	m'a-
=70	=70	=70	=70	=70	=70	=70	=70	=70
2A]	.	.	1e	.	mis,	2cc]	.	.
2G	.	.	.	.	.	4b	.	.
.	.	.	.	.	.	4a	.	.
2A	.	.	2c	.	m'a-	2cc	.	.
2B	.	.	2d	.	.	2b	.	.
=71	=71	=71	=71	=71	=71	=71	=71	=71
2E	.	.	2e	.	.	2g	.	.
2F	.	.	2A	.	.	1a	.	.
1E	.	-vez	1B	.	-vez	.	.	.
.	.	.	.	.	.	2g#i	.	-vez
=72	=72	=72	=72	=72	=72	=72	=72	=72
0el	.	mis.	0Al	.	mis.	0al	.	mis.
=||	=||	=||	=||	=||	=||	=||	=||	=||
*-	*-	*-	*-	*-	*-	*-	*-	*-
!!!RDF**kern: l=long note in original notation
!!!RDF**kern: i=editorial accidental
!!!RDF**kern: V=start of tuplet marker
!!!RDF**kern: Z=end of tuplet marker
!!!ENC: Jesse Rodin 17 April 2018
!!!END: 2018/07/16/
!!!EED: Jesse Rodin
!!!EEV: 2018/07/23/
!!!ONB: Translated from MusicXML and edited on 2018/07/23/ by Craig Sapp
!!muse2ps: C^@{COM}\nEd. @{EED}^i2I150v105,105,150Q16z18l2550c75
